!!!OTL: Haidi zhenzhu rongyi wen
!!!ARE: Asia, China,ˇGuangdong, Zhongshan
!! II, 418
!!!SCT: C1520
!!!YEM: Copyright 1995, estate of Helmut Schaffrath.
**kern
*ICvox
*Ivox
!! Mixed meters:  2/4; 3/4
*M2/4
*k[f#c#g#]
*A:
{8b
8cc#
8b
16f#
16a
=1
8b
16b
16cc#
4e
=2
*M3/4
8.a
16cc#
4b
8.g#
16f#
=3
*M2/4
8e
8c#
4e
=4
8.a
16cc#
8b
16f#
16a}
=5
{4e
8b
8f#
=6
2a
=7
16f#
16e
4c#
8r
=8
8b
8cc#
8b
16f#
16a}
=9
{8b
8b
8g#
8f#
=10
4e
8a
8b
=11
8e
8e
4b
=12
8.g#
16f#
8e
8c#
=13
2e
=14
2c#}
==
!!!AGN: Xiaodiao, Dazengge. NannÅ qing
!!!AMT: irregular
!!!AIN: vox
!!!EED: Helmut Schaffrath
!!!EEV: 1.0
*-
